X:1
T:Title
%%score { ( 1 4 ) | ( 2 3 ) }
L:1/8
M:4/4
K:Bb
V:1 treble nm="Grand Piano"
V:4 treble 
V:2 bass 
V:3 bass 
V:1
 z4 z2[Q:1/4=100] [DF]>[DF] | [DB]>[DA] [DG]>[DA] [DB]2 D>E | F4 B2 A>B | c>B A>B c2 A>B | %4
 c4 F2 B>c |[M:3/4] d>c B>c d2 |[M:1/4] c>d |[M:4/4] [Ge]>[Gd] [Gc]>[Gd] [Ge]2 [Gd]>[Gc] | %8
 [Ff]>[Fd] [DB]>[Gc] d2 D>E |[M:3/4] F2 [Ec]2 [B,DB]2 |[M:1/4] d>_d |[M:4/4] d4 [DB]2 z2 | %12
 [DF]>[DG] [DA]>[DB] A2 e>d |[M:3/4] e4 c2 |[M:1/4] F>G |[M:4/4] A>B c>_d [F=d]2 B>c | %16
[M:3/4] d>c B>c d2 |[M:1/4] c>d |[M:4/4] [Ge]>[Gd] [Gc]>[Gd] [Ge]2 [Gd]>[Gc] | %19
 [Ff]>[Fd] [DB]>[Gc] d2 D>E |[M:7/4] F2 [Ec]2 [DB]2 z2 z2 z4 |] %21
V:2
 z4 z2 [B,,B,]>[B,,B,] | [B,,F,]>[B,,F,] [B,,F,]>[B,,F,] [B,,F,]2 D,>E, | %2
 F,4 [B,,B,]2 [F,CF]>[F,G,F] | [F,A,F]>[F,DF] [F,CF]>[F,G,F] [F,A,F]2 A,>B, | %4
 C4 F,2[K:treble] [B,D]>[B,E] |[M:3/4] [B,F]>[B,E] [B,D]>[B,E] [B,F]2 |[M:1/4] [B,E]>[B,F] | %7
[M:4/4][K:bass] [E,B,]>[E,B,] [E,B,]>[D,=B,] [C,C]2 [D,B,]>[E,C] | %8
 [D,B,]>[B,,B,] [G,B,]>[=E,B,] [F,B,F]2 D,>_E, |[M:3/4] F,4 z2 |[M:1/4][K:treble] F>=E | %11
[M:4/4] F4[K:bass] z4 | [B,,B,]>[B,,B,] [B,,B,]>[B,,B,] [F,CE]2[K:treble] c>=B | %13
[M:3/4] c4[K:bass] F2 |[M:1/4] [F,A,]>[F,B,F] | %15
[M:4/4] [F,CE]>[F,B,D] [F,A,E]>[F,G,=E] [B,,F,]2[K:treble] [B,D]>[B,_E] | %16
[M:3/4] [B,F]>[B,E] [B,D]>[B,E] [B,F]2 |[M:1/4] [B,E]>[B,F] | %18
[M:4/4][K:bass] [E,B,]>[E,B,] [E,B,]>[D,=B,] [C,C]2 [D,B,]>[E,C] | %19
 [D,B,]>[B,,B,] [G,B,]>[=E,B,] [F,B,F]2 D,>_E, |[M:7/4] z2 A,2 [B,,B,]2 z2 z2 z4 |] %21
V:3
 x8 | x8 | x8 | x8 | x6[K:treble] x2 |[M:3/4] x6 |[M:1/4] x2 |[M:4/4][K:bass] x8 | x8 | %9
[M:3/4] z2 A,2 B,,2 |[M:1/4][K:treble] x2 |[M:4/4] z2[K:bass] B,,>B,, B,,B,, [B,,F,B,]>[B,,F,] | %12
 x6[K:treble] x2 |[M:3/4] z2[K:bass] F,>F, [F,A,]F, |[M:1/4] x2 |[M:4/4] x6[K:treble] x2 | %16
[M:3/4] x6 |[M:1/4] x2 |[M:4/4][K:bass] x8 | x8 |[M:7/4] F,4 z2 z2 z2 z4 |] %21
V:4
 x8 | x8 | x8 | x8 | x8 |[M:3/4] x6 |[M:1/4] x2 |[M:4/4] x8 | x8 |[M:3/4] x6 |[M:1/4] x2 | %11
[M:4/4] z2 B,>B, B,B, D>[CE] | x8 |[M:3/4] z2 A,>A, z A, |[M:1/4] x2 |[M:4/4] x8 |[M:3/4] x6 | %17
[M:1/4] x2 |[M:4/4] x8 | x8 |[M:7/4] x14 |] %21

